X:1
T:Quay Side.  WHL.[172]
T:Quay Side.  WHL.[172]
T:Attributed to James Hill elsewhere
C:Attributed to James Hill elsewhere
L:1/8
Q:1/4=140
M:4/4
K:A
V:1 treble 
V:1
"^NB1" (3efg | a2 Ac e2 EG | A2 A,"^D in MS"C E2 Ac | d2 fd cAec | Bbba gefg | %5
 a2"^NB1" (3Acd e2"^NB1" (3EFG | A2 A,"^D in MS"C E2 Ac | defd cA (c/B/A/)G/ | B2 A2 A2 :: cd | %10
 ecAa fdBb | gefg Ta2 ag | Tf2 fe dcBA | GBe^d efge | agag fefe | dcBA GFED | CEAd cBAG | %17
 B2 A2 A2"^NB2" :| %18

